X:21
T:Scarborough Fair
T:The Elfin Knight
B:Bronson
C:Trad
O:Sharp MSS., 2868/. Sung by Richard Hutton (65), Goathland, July 14, 1913.
N:Child 2
N:I can't fit the words to this tune sensibly, so I've left it as printed.
N:The letter S is a short phrase mark and indicates the position of the
N:end of the line of the lyrics.
G:B
M:6/8
K:GDor % inflected 7th
D | GAG FGA | BcB A2 S D |
"a"G2 A BAG | GBc d2 S G | d2 d edc |
dGG FG S A | BcB "b"AAG | DE^F G2 |]
"a"G2 G G2 B | cBc d2 || "b"AAF ||
W:
W:Where are you going to Scarboro Fair
W:Parsley Sage Rosemary and thyme,
W:Remember me to a bonny lass there
W:For once she was a true lover of mine.
W:
W:Tell her to make me a cambric shirt,
W:Without either needle or thread worked in it
W:And tell her to wash it in yonder spring
W:Where water never sprung nor a drop ran through.
